X: 4
T: Kings Arms
T: Longways for as many as will.
%R: jig
B: Daniel Wright "Wright's Compleat Collection of Celebrated Country Dances" 1740 p.2
S: http://library.efdss.org/cgi-bin/dancebooks.cgi
Z: 2014 John Chambers <jc:trillian.mit.edu>
M: 6/8
L: 1/8
K: D
% - - - - - - - - - - - - - - - - - - - - - - - - -
[|\
DED AFD | AFD AFD | ABA def | e3 A>GF/E/ |\
DED AFD | AFD AFD | A>BA d>ef | edc d3 |]
[|\
e>fe edc | B>cd/e/ c>BA | dAF dAF | G>AG/F/ E2A, |\
e>fe e>dc | B>cd/e/ c>BA | fdB ecA | B/c/dB d3 |]
% - - - - - - - - - - - - - - - - - - - - - - - - -
%%begintext align
%% The 1st Man cast down, the 2d Wo. cast up at the same time and
%% then cast back again into their own Places .| their Partners do the
%% same :|: 1st Man figures round the 3d Man 1st Wo. figures round
%% the 3d Wo. at the same time & turn her Partner in the 3d Cu.
%% Place .| 1st Man figures round the 2d Man, 1st Wo figures round
%% the 2d Wo. at the same time & turn at top  :| 1st Man foots it with
%% the 2d Wo. & turns her .|. 1st Wo. does the same with the 2d man :|
%% 1st & 2d Cu. goes cross hands half round with their right hand
%% back with their left & cast off .| 1st and 2d Cu. right & left
%% quite round :#:
%%endtext
% - - - - - - - - - - - - - - - - - - - - - - - - -
%%sep 2 4 300
